Lila_HD/places/scalable/user-trash-full-symbolic.svg

<?xml version="1.0" encoding="UTF-8" standalone="no"?>
<!-- Created with Inkscape (http://www.inkscape.org/) -->

<svg
   xmlns:dc="http://purl.org/dc/elements/1.1/"
   xmlns:cc="http://creativecommons.org/ns#"
   xmlns:rdf="http://www.w3.org/1999/02/22-rdf-syntax-ns#"
   xmlns:svg="http://www.w3.org/2000/svg"
   xmlns="http://www.w3.org/2000/svg"
   xmlns:sodipodi="http://sodipodi.sourceforge.net/DTD/sodipodi-0.dtd"
   xmlns:inkscape="http://www.inkscape.org/namespaces/inkscape"
   version="1.1"
   width="16"
   height="16"
   viewBox="0 0 16 16"
   id="svg2"
   inkscape:version="0.48.3.1 r9886"
   sodipodi:docname="gnome-stock-trash-full.svg">
  <sodipodi:namedview
     pagecolor="#ffffff"
     bordercolor="#666666"
     borderopacity="1"
     objecttolerance="10"
     gridtolerance="10"
     guidetolerance="10"
     inkscape:pageopacity="0"
     inkscape:pageshadow="2"
     inkscape:window-width="1920"
     inkscape:window-height="1033"
     id="namedview6"
     showgrid="true"
     inkscape:zoom="83.4386"
     inkscape:cx="5.9786499"
     inkscape:cy="4.5693613"
     inkscape:window-x="-2"
     inkscape:window-y="25"
     inkscape:window-maximized="1"
     inkscape:current-layer="svg2"
     inkscape:snap-bbox="true"
     inkscape:bbox-paths="true"
     inkscape:bbox-nodes="true"
     inkscape:snap-bbox-edge-midpoints="true"
     inkscape:snap-bbox-midpoints="true"
     inkscape:object-paths="true"
     inkscape:snap-intersection-paths="true"
     inkscape:object-nodes="true"
     inkscape:snap-smooth-nodes="true"
     inkscape:snap-midpoints="true"
     inkscape:snap-object-midpoints="true"
     inkscape:snap-center="true">
    <inkscape:grid
       type="xygrid"
       id="grid3751" />
  </sodipodi:namedview>
  <metadata
     id="metadata10">
    <rdf:RDF>
      <cc:Work
         rdf:about="">
        <dc:format>image/svg+xml</dc:format>
        <dc:type
           rdf:resource="http://purl.org/dc/dcmitype/StillImage" />
        <dc:title />
      </cc:Work>
    </rdf:RDF>
  </metadata>
  <defs
     id="defs8" />
  <path
     style="fill:#999999;fill-opacity:0.912371168"
     d="M 6 0 L 5.96875 1 L 0 1 L 0 4 L 16 4 L 16 1 L 9.96875 1 L 10 0 L 6 0 z M 7 2 L 9 2 L 9 3 L 7 3 L 7 2 z M 2 5 C 2 5 0.62756114 7.7050785 0.5 9.5 C 0.37243886 11.294922 2 15 2 15 L 5 15 L 5 13 C 5 13 3.5 10.990712 3.5 9.5 C 3.5 8.009288 5 5 5 5 L 2 5 z M 6 5 C 6 5 4.75 8.0446459 4.75 9.5 C 4.75 10.955354 6 13 6 13 L 6 15 L 7 15 L 7 13 C 7 13 6 10.924001 6 9.5 C 6 8.0759994 7 5 7 5 L 6 5 z M 9 5 C 9 5 10 8.0759994 10 9.5 C 10 10.924001 9 13 9 13 L 9 15 L 10 15 L 10 13 C 10 13 11.25 10.955354 11.25 9.5 C 11.25 8.0446459 10 5 10 5 L 9 5 z M 11 5 C 11 5 12.5 8.009288 12.5 9.5 C 12.5 10.990712 11 13 11 13 L 11 15 L 14 15 C 14 15 15.627561 11.294922 15.5 9.5 C 15.372439 7.7050785 14 5 14 5 L 11 5 z "
     id="path3001" />
</svg>

<?xml version="1.0" encoding="UTF-8"?>
<!-- Created with Inkscape (http://www.inkscape.org/) -->
<svg version="1.1" viewBox="0 0 16 16" xmlns="http://www.w3.org/2000/svg" xmlns:cc="http://creativecommons.org/ns#" xmlns:dc="http://purl.org/dc/elements/1.1/" xmlns:rdf="http://www.w3.org/1999/02/22-rdf-syntax-ns#">
<metadata>
<rdf:RDF>
<cc:Work rdf:about="">
<dc:format>image/svg+xml</dc:format>
<dc:type rdf:resource="http://purl.org/dc/dcmitype/StillImage"/>
<dc:title/>
</cc:Work>
</rdf:RDF>
</metadata>
<path d="m6 0-0.03125 1h-5.9688v3h16v-3h-6.0312l0.03125-1h-4zm1 2h2v1h-2v-1zm-5 3s-1.3724 2.7051-1.5 4.5c-0.12756 1.7949 1.5 5.5 1.5 5.5h3v-2s-1.5-2.0093-1.5-3.5 1.5-4.5 1.5-4.5h-3zm4 0s-1.25 3.0446-1.25 4.5c0 1.4554 1.25 3.5 1.25 3.5v2h1v-2s-1-2.076-1-3.5c0-1.424 1-4.5 1-4.5h-1zm3 0s1 3.076 1 4.5c0 1.424-1 3.5-1 3.5v2h1v-2s1.25-2.0446 1.25-3.5c0-1.4554-1.25-4.5-1.25-4.5h-1zm2 0s1.5 3.0093 1.5 4.5-1.5 3.5-1.5 3.5v2h3s1.6276-3.7051 1.5-5.5c-0.12756-1.7949-1.5-4.5-1.5-4.5h-3z" fill="#999" fill-opacity=".91237"/>
</svg>
